static/img/kroki/f4cace3a19a2bddbb13c6540f83e54cb.svg

<?xml version="1.0" encoding="us-ascii" standalone="no"?><svg xmlns="http://www.w3.org/2000/svg" xmlns:xlink="http://www.w3.org/1999/xlink" contentStyleType="text/css" height="679px" preserveAspectRatio="none" style="width:321px;height:679px;" version="1.1" viewBox="0 0 321 679" width="321px" zoomAndPan="magnify"><defs/><g><!--class digitalocean_resource--><g id="elem_digitalocean_resource"><rect codeLine="22" fill="#3D176E" height="74.0859" id="digitalocean_resource" rx="2.5" ry="2.5" style="stroke:#000D19;stroke-width:0.5;" width="223" x="7" y="438.76"/><ellipse cx="22" cy="458.6545" fill="#ADD1B2" rx="11" ry="11" style="stroke:#181818;stroke-width:1.0;"/><path d="M24.9688,464.2952 Q24.3906,464.592 23.75,464.7327 Q23.1094,464.8889 22.4063,464.8889 Q19.9063,464.8889 18.5781,463.2483 Q17.2656,461.592 17.2656,458.467 Q17.2656,455.342 18.5781,453.6858 Q19.9063,452.0295 22.4063,452.0295 Q23.1094,452.0295 23.75,452.1858 Q24.4063,452.342 24.9688,452.6389 L24.9688,455.3577 Q24.3438,454.7795 23.75,454.5139 Q23.1563,454.2327 22.5313,454.2327 Q21.1875,454.2327 20.5,455.3108 Q19.8125,456.3733 19.8125,458.467 Q19.8125,460.5608 20.5,461.6389 Q21.1875,462.7014 22.5313,462.7014 Q23.1563,462.7014 23.75,462.4358 Q24.3438,462.1545 24.9688,461.5764 L24.9688,464.2952 Z " fill="#000000"/><text fill="#D9B8FF" font-family="Helvetica" font-size="17" lengthAdjust="spacing" textLength="181" x="41" y="464.5398">digitalocean_resource</text><line style="stroke:#000D19;stroke-width:0.5;" x1="8" x2="229" y1="478.5491" y2="478.5491"/><text fill="#D9B8FF" font-family="sans-serif" font-size="14" font-weight="bold" lengthAdjust="spacing" textLength="27" x="18" y="500.5442">urn</text><text fill="#D9B8FF" font-family="sans-serif" font-size="14" lengthAdjust="spacing" textLength="48" x="45" y="500.5442">: string</text></g><!--class digitalocean_tag--><g id="elem_digitalocean_tag"><rect codeLine="25" fill="#3D176E" height="39.7891" id="digitalocean_tag" rx="2.5" ry="2.5" style="stroke:#000D19;stroke-width:0.5;" width="179" x="111" y="633.84"/><ellipse cx="126" cy="653.7345" fill="#ADD1B2" rx="11" ry="11" style="stroke:#181818;stroke-width:1.0;"/><path d="M128.9688,659.3752 Q128.3906,659.672 127.75,659.8127 Q127.1094,659.9689 126.4063,659.9689 Q123.9063,659.9689 122.5781,658.3283 Q121.2656,656.672 121.2656,653.547 Q121.2656,650.422 122.5781,648.7658 Q123.9063,647.1095 126.4063,647.1095 Q127.1094,647.1095 127.75,647.2658 Q128.4063,647.422 128.9688,647.7189 L128.9688,650.4377 Q128.3438,649.8595 127.75,649.5939 Q127.1563,649.3127 126.5313,649.3127 Q125.1875,649.3127 124.5,650.3908 Q123.8125,651.4533 123.8125,653.547 Q123.8125,655.6408 124.5,656.7189 Q125.1875,657.7814 126.5313,657.7814 Q127.1563,657.7814 127.75,657.5158 Q128.3438,657.2345 128.9688,656.6564 L128.9688,659.3752 Z " fill="#000000"/><text fill="#D9B8FF" font-family="Helvetica" font-size="17" lengthAdjust="spacing" textLength="137" x="145" y="659.6198">digitalocean_tag</text></g><!--class resource--><g id="elem_resource"><rect codeLine="27" fill="#3D176E" height="310.7578" id="resource" rx="2.5" ry="2.5" style="stroke:#000D19;stroke-width:0.5;" width="227" x="87" y="7"/><ellipse cx="155.75" cy="26.8945" fill="#ADD1B2" rx="11" ry="11" style="stroke:#181818;stroke-width:1.0;"/><path d="M158.7188,32.5352 Q158.1406,32.832 157.5,32.9727 Q156.8594,33.1289 156.1563,33.1289 Q153.6563,33.1289 152.3281,31.4883 Q151.0156,29.832 151.0156,26.707 Q151.0156,23.582 152.3281,21.9258 Q153.6563,20.2695 156.1563,20.2695 Q156.8594,20.2695 157.5,20.4258 Q158.1563,20.582 158.7188,20.8789 L158.7188,23.5977 Q158.0938,23.0195 157.5,22.7539 Q156.9063,22.4727 156.2813,22.4727 Q154.9375,22.4727 154.25,23.5508 Q153.5625,24.6133 153.5625,26.707 Q153.5625,28.8008 154.25,29.8789 Q154.9375,30.9414 156.2813,30.9414 Q156.9063,30.9414 157.5,30.6758 Q158.0938,30.3945 158.7188,29.8164 L158.7188,32.5352 Z " fill="#000000"/><text fill="#D9B8FF" font-family="Helvetica" font-size="17" lengthAdjust="spacing" textLength="71" x="181.25" y="32.7798">resource</text><line style="stroke:#000D19;stroke-width:0.5;" x1="88" x2="313" y1="46.7891" y2="46.7891"/><text fill="#D9B8FF" font-family="sans-serif" font-size="14" font-weight="bold" lengthAdjust="spacing" textLength="29" x="98" y="68.7842">age</text><text fill="#D9B8FF" font-family="sans-serif" font-size="14" lengthAdjust="spacing" textLength="66" x="127" y="68.7842">: duration</text><text fill="#D9B8FF" font-family="sans-serif" font-size="14" font-weight="bold" lengthAdjust="spacing" textLength="43" x="98" y="95.0811">atime</text><text fill="#D9B8FF" font-family="sans-serif" font-size="14" lengthAdjust="spacing" textLength="70" x="141" y="95.0811">: datetime</text><text fill="#D9B8FF" font-family="sans-serif" font-size="14" font-weight="bold" lengthAdjust="spacing" textLength="43" x="98" y="121.3779">ctime</text><text fill="#D9B8FF" font-family="sans-serif" font-size="14" lengthAdjust="spacing" textLength="70" x="141" y="121.3779">: datetime</text><text fill="#D9B8FF" font-family="sans-serif" font-size="14" font-weight="bold" lengthAdjust="spacing" textLength="14" x="98" y="147.6748">id</text><text fill="#D9B8FF" font-family="sans-serif" font-size="14" lengthAdjust="spacing" textLength="48" x="112" y="147.6748">: string</text><text fill="#D9B8FF" font-family="sans-serif" font-size="14" font-weight="bold" lengthAdjust="spacing" textLength="33" x="98" y="173.9717">kind</text><text fill="#D9B8FF" font-family="sans-serif" font-size="14" lengthAdjust="spacing" textLength="48" x="131" y="173.9717">: string</text><text fill="#D9B8FF" font-family="sans-serif" font-size="14" font-weight="bold" lengthAdjust="spacing" textLength="90" x="98" y="200.2686">last_access</text><text fill="#D9B8FF" font-family="sans-serif" font-size="14" lengthAdjust="spacing" textLength="66" x="188" y="200.2686">: duration</text><text fill="#D9B8FF" font-family="sans-serif" font-size="14" font-weight="bold" lengthAdjust="spacing" textLength="90" x="98" y="226.5654">last_update</text><text fill="#D9B8FF" font-family="sans-serif" font-size="14" lengthAdjust="spacing" textLength="66" x="188" y="226.5654">: duration</text><text fill="#D9B8FF" font-family="sans-serif" font-size="14" font-weight="bold" lengthAdjust="spacing" textLength="48" x="98" y="252.8623">mtime</text><text fill="#D9B8FF" font-family="sans-serif" font-size="14" lengthAdjust="spacing" textLength="70" x="146" y="252.8623">: datetime</text><text fill="#D9B8FF" font-family="sans-serif" font-size="14" font-weight="bold" lengthAdjust="spacing" textLength="43" x="98" y="279.1592">name</text><text fill="#D9B8FF" font-family="sans-serif" font-size="14" lengthAdjust="spacing" textLength="48" x="141" y="279.1592">: string</text><text fill="#D9B8FF" font-family="sans-serif" font-size="14" font-weight="bold" lengthAdjust="spacing" textLength="34" x="98" y="305.4561">tags</text><text fill="#D9B8FF" font-family="sans-serif" font-size="14" lengthAdjust="spacing" textLength="171" x="132" y="305.4561">: dictionary[string, string]</text></g><!--reverse link resource to digitalocean_resource--><g id="link_resource_digitalocean_resource"><path codeLine="39" d="M154.4,338.45 C144.4,376.44 134.8,412.88 128.05,438.51 " fill="none" id="resource-backto-digitalocean_resource" style="stroke:#FFAF37;stroke-width:2.0;"/><polygon fill="none" points="147.88,336.73,159.74,319.17,161.42,340.3,147.88,336.73" style="stroke:#FFAF37;stroke-width:2.0;"/></g><!--reverse link digitalocean_resource to digitalocean_tag--><g id="link_digitalocean_resource_digitalocean_tag"><path codeLine="40" d="M144.27,532.09 C160.47,566.85 180.37,609.54 191.62,633.69 " fill="none" id="digitalocean_resource-backto-digitalocean_tag" style="stroke:#FFAF37;stroke-width:2.0;"/><polygon fill="none" points="137.59,535.34,135.49,514.25,150.28,529.42,137.59,535.34" style="stroke:#FFAF37;stroke-width:2.0;"/></g><!--reverse link resource to digitalocean_tag--><g id="link_resource_digitalocean_tag"><path codeLine="41" d="M244.43,338.7 C252.95,394.47 256.74,456.33 247.5,512.84 C240.18,557.6 220.52,607.34 209.07,633.78 " fill="none" id="resource-backto-digitalocean_tag" style="stroke:#FFAF37;stroke-width:2.0;"/><polygon fill="none" points="237.37,339.93,241.01,319.05,251.18,337.64,237.37,339.93" style="stroke:#FFAF37;stroke-width:2.0;"/></g><!--SRC=[XP9FQy904CNl-HGBta85hRHgwSKAfRr8gRsLKiRTILnCTiFif6B_VFTkZ4fCejx2Ux-TzsR8KYiKc6Qy4Icc2oGNk9Ks6H2aOa9arrERM1ATA89eCAoRZzRmHM06AOedJBwGjOGwyRRKScNGEN5TiHv0hcAokL7bU2Ompbjek49D4t1kmanwaJDMogZnOXH5TR8-j3DG_U4jDZ1B2cc7z7ezrH_NaOjHP_S-47FzZQ9VFThCCZPgDYAsrDcM1L4fsLXqxv_i-09AQHEBcuhsMdOYWtIapvUWxBgW8qXSDSOn4bhUP3XjR8NZaOg6hV3pALWMbnDAnveXiHB1V18wcvD4yHE4OKuc3E_y9F9jWhysdY7swDuwUWqn5gzLJi3Qca9XdPOQC1RVNfCjcbQLs33qAnqBFei_GKh_czSIjawU5RDgJjgIOw2K3eFzDkL4BOjdG9ltqhlQCHz-rSEIzx_TRhVzV47xKLjU-CZWWlyF]--></g></svg>

<svg xmlns="http://www.w3.org/2000/svg" width="321" height="679" preserveAspectRatio="none" style="width:321px;height:679px"><rect width="223" height="74.086" x="7" y="438.76" fill="#3D176E" rx="2.5" ry="2.5" style="stroke:#000d19;stroke-width:.5"/><circle cx="22" cy="458.654" r="11" fill="#ADD1B2" style="stroke:#181818;stroke-width:1"/><path d="M24.969 464.295q-.578.297-1.219.438-.64.156-1.344.156-2.5 0-3.828-1.64-1.312-1.657-1.312-4.782t1.312-4.781q1.328-1.656 3.828-1.656.703 0 1.344.156.656.156 1.219.453v2.719q-.625-.579-1.219-.844-.594-.281-1.219-.281-1.343 0-2.031 1.078-.688 1.062-.688 3.156 0 2.094.688 3.172.688 1.062 2.031 1.062.625 0 1.219-.265.594-.281 1.219-.86v2.72Z"/><text x="41" y="464.54" fill="#D9B8FF" font-family="Helvetica" font-size="17" textLength="181">digitalocean_resource</text><path d="M8 478.549h221" style="stroke:#000d19;stroke-width:.5"/><text x="18" y="500.544" fill="#D9B8FF" font-family="sans-serif" font-size="14" font-weight="bold" textLength="27">urn</text><text x="45" y="500.544" fill="#D9B8FF" font-family="sans-serif" font-size="14" textLength="48">: string</text><rect width="179" height="39.789" x="111" y="633.84" fill="#3D176E" rx="2.5" ry="2.5" style="stroke:#000d19;stroke-width:.5"/><circle cx="126" cy="653.735" r="11" fill="#ADD1B2" style="stroke:#181818;stroke-width:1"/><path d="M128.969 659.375q-.578.297-1.219.438-.64.156-1.344.156-2.5 0-3.828-1.64-1.312-1.657-1.312-4.782t1.312-4.781q1.328-1.656 3.828-1.656.703 0 1.344.156.656.156 1.219.453v2.719q-.625-.578-1.219-.844-.594-.281-1.219-.281-1.344 0-2.031 1.078-.688 1.062-.688 3.156 0 2.094.688 3.172.688 1.062 2.031 1.062.625 0 1.219-.265.594-.281 1.219-.86v2.72Z"/><text x="145" y="659.62" fill="#D9B8FF" font-family="Helvetica" font-size="17" textLength="137">digitalocean_tag</text><rect width="227" height="310.758" x="87" y="7" fill="#3D176E" rx="2.5" ry="2.5" style="stroke:#000d19;stroke-width:.5"/><circle cx="155.75" cy="26.895" r="11" fill="#ADD1B2" style="stroke:#181818;stroke-width:1"/><path d="M158.719 32.535q-.578.297-1.219.438-.64.156-1.344.156-2.5 0-3.828-1.64-1.312-1.657-1.312-4.782t1.312-4.781q1.328-1.656 3.828-1.656.703 0 1.344.156.656.156 1.219.453v2.719q-.625-.578-1.219-.844-.594-.281-1.219-.281-1.344 0-2.031 1.078-.688 1.062-.688 3.156 0 2.094.688 3.172.688 1.062 2.031 1.062.625 0 1.219-.265.594-.281 1.219-.86v2.72Z"/><text x="181.25" y="32.78" fill="#D9B8FF" font-family="Helvetica" font-size="17" textLength="71">resource</text><path d="M88 46.789h225" style="stroke:#000d19;stroke-width:.5"/><text x="98" y="68.784" fill="#D9B8FF" font-family="sans-serif" font-size="14" font-weight="bold" textLength="29">age</text><text x="127" y="68.784" fill="#D9B8FF" font-family="sans-serif" font-size="14" textLength="66">: duration</text><text x="98" y="95.081" fill="#D9B8FF" font-family="sans-serif" font-size="14" font-weight="bold" textLength="43">atime</text><text x="141" y="95.081" fill="#D9B8FF" font-family="sans-serif" font-size="14" textLength="70">: datetime</text><text x="98" y="121.378" fill="#D9B8FF" font-family="sans-serif" font-size="14" font-weight="bold" textLength="43">ctime</text><text x="141" y="121.378" fill="#D9B8FF" font-family="sans-serif" font-size="14" textLength="70">: datetime</text><text x="98" y="147.675" fill="#D9B8FF" font-family="sans-serif" font-size="14" font-weight="bold" textLength="14">id</text><text x="112" y="147.675" fill="#D9B8FF" font-family="sans-serif" font-size="14" textLength="48">: string</text><text x="98" y="173.972" fill="#D9B8FF" font-family="sans-serif" font-size="14" font-weight="bold" textLength="33">kind</text><text x="131" y="173.972" fill="#D9B8FF" font-family="sans-serif" font-size="14" textLength="48">: string</text><text x="98" y="200.269" fill="#D9B8FF" font-family="sans-serif" font-size="14" font-weight="bold" textLength="90">last_access</text><text x="188" y="200.269" fill="#D9B8FF" font-family="sans-serif" font-size="14" textLength="66">: duration</text><text x="98" y="226.565" fill="#D9B8FF" font-family="sans-serif" font-size="14" font-weight="bold" textLength="90">last_update</text><text x="188" y="226.565" fill="#D9B8FF" font-family="sans-serif" font-size="14" textLength="66">: duration</text><text x="98" y="252.862" fill="#D9B8FF" font-family="sans-serif" font-size="14" font-weight="bold" textLength="48">mtime</text><text x="146" y="252.862" fill="#D9B8FF" font-family="sans-serif" font-size="14" textLength="70">: datetime</text><text x="98" y="279.159" fill="#D9B8FF" font-family="sans-serif" font-size="14" font-weight="bold" textLength="43">name</text><text x="141" y="279.159" fill="#D9B8FF" font-family="sans-serif" font-size="14" textLength="48">: string</text><text x="98" y="305.456" fill="#D9B8FF" font-family="sans-serif" font-size="14" font-weight="bold" textLength="34">tags</text><text x="132" y="305.456" fill="#D9B8FF" font-family="sans-serif" font-size="14" textLength="171">: dictionary[string, string]</text><path fill="none" d="M154.4 338.45c-10 37.99-19.6 74.43-26.35 100.06m19.83-101.78 11.86-17.56 1.68 21.13-13.54-3.57z" style="stroke:#ffaf37;stroke-width:2"/><g fill="none"><path d="M144.27 532.09c16.2 34.76 36.1 77.45 47.35 101.6" style="stroke:#ffaf37;stroke-width:2"/><path d="m137.59 535.34-2.1-21.09 14.79 15.17-12.69 5.92z" style="stroke:#ffaf37;stroke-width:2"/></g><g fill="none"><path d="M244.43 338.7c8.52 55.77 12.31 117.63 3.07 174.14-7.32 44.76-26.98 94.5-38.43 120.94" style="stroke:#ffaf37;stroke-width:2"/><path d="m237.37 339.93 3.64-20.88 10.17 18.59-13.81 2.29z" style="stroke:#ffaf37;stroke-width:2"/></g></svg>
